dist/assets/img/icons/telegram-1.svg

<svg width="24" height="21" viewBox="0 0 24 21" fill="none" xmlns="http://www.w3.org/2000/svg">
<path fill-rule="evenodd" clip-rule="evenodd" d="M18.3839 20.2789C18.7059 20.5069 19.1209 20.5639 19.4909 20.4239C19.8609 20.2829 20.1329 19.9669 20.2149 19.5839C21.0839 15.4999 23.1919 5.1629 23.9829 1.4479C24.0429 1.1679 23.9429 0.876904 23.7229 0.689904C23.5029 0.502904 23.1979 0.448904 22.9259 0.549904C18.7329 2.1019 5.81991 6.9469 0.54191 8.8999C0.20691 9.0239 -0.0110904 9.3459 -9.04275e-05 9.6989C0.0119096 10.0529 0.24991 10.3599 0.59291 10.4629C2.95991 11.1709 6.06691 12.1559 6.06691 12.1559C6.06691 12.1559 7.51891 16.5409 8.27591 18.7709C8.37091 19.0509 8.58991 19.2709 8.87891 19.3469C9.16691 19.4219 9.47491 19.3429 9.68991 19.1399C10.9059 17.9919 12.7859 16.2169 12.7859 16.2169C12.7859 16.2169 16.3579 18.8359 18.3839 20.2789ZM7.37391 11.6019L9.05291 17.1399L9.42591 13.6329C9.42591 13.6329 15.9129 7.7819 19.6109 4.4469C19.7189 4.3489 19.7339 4.1849 19.6439 4.0699C19.5549 3.9549 19.3909 3.9279 19.2679 4.0059C14.9819 6.7429 7.37391 11.6019 7.37391 11.6019Z" fill="#83FFD3"/>
</svg>

<svg width="24" height="21" fill="none" xmlns="http://www.w3.org/2000/svg"><path fill-rule="evenodd" clip-rule="evenodd" d="M18.384 20.279a1.19 1.19 0 001.107.145 1.16 1.16 0 00.724-.84c.869-4.084 2.977-14.421 3.768-18.136a.78.78 0 00-.26-.758.8.8 0 00-.797-.14C18.733 2.102 5.82 6.947.542 8.9A.827.827 0 000 9.699a.83.83 0 00.593.764c2.367.708 5.474 1.693 5.474 1.693s1.452 4.385 2.209 6.615c.095.28.314.5.603.576a.866.866 0 00.81-.207l3.097-2.923s3.572 2.619 5.598 4.062zm-11.01-8.677l1.679 5.538.373-3.507L19.61 4.447a.277.277 0 00.033-.377.284.284 0 00-.376-.064L7.374 11.602z" fill="#83FFD3"/></svg>
